Papirus-nordic/22x22/places/folder-red-recent.svg

<svg xmlns="http://www.w3.org/2000/svg" width="22" height="22" version="1"><rect width="20" height="12" x="1" y="8.5" rx="1" ry="1" opacity=".2"/><path d="M1 16c0 .554.446 1 1 1h18c.554 0 1-.446 1-1V5c0-.554-.446-1-1-1H10V3c0-.554-.446-1-1-1H2c-.554 0-1 .446-1 1" fill="#ae4f58"/><rect width="20" height="12" x="1" y="7.5" rx="1" ry="1" opacity=".2"/><rect width="16" height="8" x="3" y="6" rx="1" ry="1" fill="#e4e4e4"/><rect width="20" height="12" x="1" y="8" rx="1" ry="1" fill="#bf616a"/><path d="M2 2c-.554 0-1 .446-1 1v.5c0-.554.446-1 1-1h7c.554 0 1 .446 1 1V3c0-.554-.446-1-1-1zm8 2v.5h10c.554 0 1 .446 1 1V5c0-.554-.446-1-1-1z" opacity=".1" fill="#fff"/><path d="M11 10a4 4 0 0 0-4 4 4 4 0 0 0 4 4 4 4 0 0 0 4-4 4 4 0 0 0-4-4zm0 1a3 3 0 0 1 3 3 3 3 0 0 1-3 3 3 3 0 0 1-3-3 3 3 0 0 1 2-2.826V14h3v-1h-2z" fill="#974a4d"/></svg>

<svg xmlns="http://www.w3.org/2000/svg" width="22" height="22" version="1">
 <rect style="opacity:0.2" width="20" height="12" x="1" y="8.5" rx="1" ry="1"/>
 <path style="fill:#ae4f58" d="M 1,16 C 1,16.554 1.446,17 2,17 H 20 C 20.554,17 21,16.554 21,16 V 5 C 21,4.446 20.554,4 20,4 H 10 V 3 C 10,2.446 9.554,2 9,2 H 2 C 1.446,2 1,2.446 1,3"/>
 <rect style="opacity:0.2" width="20" height="12" x="1" y="7.5" rx="1" ry="1"/>
 <rect style="fill:#e4e4e4" width="16" height="8" x="3" y="6" rx="1" ry="1"/>
 <rect style="fill:#bf616a" width="20" height="12" x="1" y="8" rx="1" ry="1"/>
 <path style="opacity:0.1;fill:#ffffff" d="M 2,2 C 1.446,2 1,2.446 1,3 V 3.5 C 1,2.946 1.446,2.5 2,2.5 H 9 C 9.554,2.5 10,2.946 10,3.5 V 3 C 10,2.446 9.554,2 9,2 Z M 10,4 V 4.5 H 20 C 20.554,4.5 21,4.946 21,5.5 V 5 C 21,4.446 20.554,4 20,4 Z"/>
 <path style="fill:#974a4d" d="M 11,10 A 4,4 0 0 0 7,14 4,4 0 0 0 11,18 4,4 0 0 0 15,14 4,4 0 0 0 11,10 Z M 11,11 A 3,3 0 0 1 14,14 3,3 0 0 1 11,17 3,3 0 0 1 8,14 3,3 0 0 1 10,11.174 V 14 H 13 V 13 H 11 Z"/>
</svg>
